**kern	**kern
*part1	*part1
*staff2	*staff1
*I"Piano	*
*clefF4	*clefG2
*k[f#c#g#d#a#]	*k[f#c#g#d#a#]
=1	=1
4GGn	8bL
.	8e#X
4C#	8c#
.	8B
4Gn	8c#
.	8e#J
=	=
4FF#	8a#L
.	8f#
4C#	8c#
.	8A#
4F#	8c#
.	8f#J
=	=
4FF#	8a#L
.	8f#
4C#	8c#
.	8A#
4F#	8c#
.	8f#J
=	=
!	!LO:TX:a:B:t=più agitato
4A#X^^ 4c#	8enL
.	8f#
(4A# 4c#	8e
.	8f#
4G##X) 4B#X	8e
.	8f#J
=	=
4A#X^^ 4c#	8eL
.	8f#
(4A# 4c#	8e
.	8f#
4G#) 4Bn	8e
.	8f#J
=	=
4F#^^ 4A#	8eL
.	8f#
(4F# 4A#	8e
.	8f#
4E#X) 4G##X	8e
.	8f#J
=	=
4F#^^ 4A#	8eL
.	8f#
(4F# 4A#	8e
.	8f#
4G##X) 4B#X	8e
.	8f#J
=	=
*-	*-
!!!system-decoration: {(s1,s2)}
